X: 24996
T: Maid Of The Valley, The
R: waltz
M: 3/4
K: Dmajor
.D>D (EF/G/) (AF)|.G>A (BG)(AF)|D2 (EF/G/) (.F.E)|D4 z2|
.D>D (EF/G/) (AF)|.G>A (BG)(AF)|.D2 (EF/G/) (.F.E)|D4 z2|
.d>d (cBcd)|(c>d c).B(BA)|(A>GF).E.F.A|(B>c)(de) d2|
D>D (EF/G/)|(AF)|.G>A (BG A)F|D2 (EF/G/) F.E|D4 z2||

